web/src/layouts/SidebarLayout/redwood_logotype.svg

<svg width="1221px" height="195px" viewBox="0 0 1221 195" version="1.1" xmlns="http://www.w3.org/2000/svg" xmlns:xlink="http://www.w3.org/1999/xlink">
    <g id="Page-1" stroke="none" stroke-width="1" fill="none" fill-rule="evenodd">
        <g id="Redwood-Logotype">
            <g id="logo" fill="#BF4722">
                <path d="M48.7317054,28.1934245 L86.6480909,54.0386782 C87.5035715,54.6078924 88.5031819,54.9194282 89.5292936,54.937071 C90.5568001,54.9296424 91.5587352,54.6171782 92.4104963,54.0386782 L130.355708,28.1064638 C131.830017,27.0523031 132.643188,25.2949816 132.495339,23.4818066 C132.34749,21.6686316 131.260936,20.0679138 129.635523,19.2692495 L91.7186729,0.522692278 C90.2806287,-0.174230759 88.6050027,-0.174230759 87.1664936,0.522692278 L49.3654119,19.2692495 C47.710708,20.0721852 46.6097417,21.7038709 46.4787695,23.5467138 C46.3478438,25.3896031 47.2071833,27.1621066 48.7317054,28.1934245 Z M102.40846,62.1516067 C102.41125,63.8657496 103.251388,65.4684639 104.655491,66.4397496 L135.052017,87.1858925 C136.99777,88.5253568 139.601407,88.358214 141.362116,86.7801068 L166.86055,64.0059639 C167.996852,62.9919639 168.627769,61.5238925 168.583135,59.9968567 C168.538966,58.469821 167.823431,57.0412139 166.629943,56.0959282 L142.284082,36.6540102 C140.514074,35.2501495 138.045734,35.1564567 136.175765,36.4222388 L104.655491,57.9502853 C103.276029,58.9039282 102.439146,60.468571 102.40846,62.1516067 Z M26.8057855,90.3727497 C28.0342835,91.474964 28.6658513,93.1004283 28.5056812,94.7481783 C28.3460689,96.405214 27.3876518,97.8779283 25.9414247,98.6885711 L7.78994079,109.553785 C5.94991373,110.652285 3.62669823,110.493964 1.95090483,109.155893 C0.275114682,107.818285 -0.40514392,105.578571 0.241203248,103.527357 L6.95435947,82.4339282 C7.48099143,80.7624997 8.81586654,79.4745711 10.4982341,79.0149282 C12.1793464,78.5260354 13.9921283,78.9545711 15.2810213,80.1449997 L26.8057855,90.3727497 Z M125.255835,92.5748568 L92.4393223,70.1484639 C90.6953508,68.9766068 88.4208884,68.9766068 86.6769169,70.1484639 L53.8599393,92.5748568 C52.5548665,93.476964 51.728212,94.9269283 51.6129081,96.5152497 C51.527825,98.1151783 52.1624613,99.668214 53.3415367,100.745821 L86.1292234,130.039 C87.0749013,130.881214 88.294891,131.345036 89.5581196,131.342723 C90.8204183,131.342723 92.039943,130.878893 92.9865509,130.039 L125.774702,100.745821 C126.957032,99.6728569 127.583765,98.1133211 127.474505,96.5152497 C127.382913,94.9269283 126.563232,93.4709283 125.255835,92.5748568 Z M37.7254368,86.7801068 L12.2557352,64.0059639 C11.1097167,62.9664282 10.477312,61.4718925 10.5270136,59.9207139 C10.5547237,58.391821 11.2632848,56.9557853 12.4574241,56.0091067 L36.8034705,36.4511638 C38.5854272,35.0513424 41.0590213,34.9579281 42.9403811,36.2193924 L74.4319217,57.7473924 C75.8932127,58.7047496 76.7747296,60.3394996 76.7747296,62.093571 C76.7747296,63.8476425 75.8932127,65.4828568 74.4319217,66.4397496 L44.0640827,87.1854283 C42.106334,88.5193211 39.4992571,88.3526425 37.7254368,86.7801068 Z M168.502701,119.492285 L142.571877,103.990714 C140.646116,102.831857 138.194978,103.066785 136.521212,104.570607 L104.828447,132.820536 C103.491294,134.012821 102.863632,135.816107 103.168629,137.586893 C103.474091,139.357214 104.66851,140.842928 106.326468,141.512893 L150.293519,159.303393 C150.89654,159.553643 151.542799,159.681786 152.195103,159.679955 C154.235703,159.686428 156.088005,158.482536 156.920238,156.608678 L170.548416,126.127393 C171.657286,123.715428 170.774374,120.850321 168.502701,119.492285 Z M172.104088,82.4339282 L178.817286,103.527357 L178.759634,103.527357 C179.256185,105.105 178.973969,106.826571 178.000395,108.160464 C177.026821,109.494821 175.478587,110.281321 173.832717,110.278558 C172.909821,110.281321 172.003197,110.031071 171.210948,109.55425 L153.030592,98.6885711 C151.613934,97.861214 150.689179,96.3898926 150.552953,94.7481783 C150.382786,93.0990354 151.016028,91.4693925 152.252755,90.3727497 L163.777566,80.1157497 C165.079384,78.9508568 166.878683,78.5255711 168.560353,78.9856782 C170.241558,79.4652854 171.571738,80.7601782 172.104088,82.4339282 Z M75.9299426,137.5725 C76.2400543,135.809143 75.6184361,134.0105 74.2877919,132.820536 L42.5947018,104.570607 C40.9212145,103.066785 38.4698908,102.831857 36.5442227,103.990714 L10.6134915,119.492285 C8.36832003,120.856357 7.48001507,123.68525 8.53904419,126.098607 L22.1959077,156.579893 C23.3273272,159.121393 26.2525593,160.310893 28.8226274,159.274607 L72.7609451,141.484107 C74.4193685,140.819714 75.6179711,139.340036 75.9299426,137.5725 Z M91.48853,146.264857 L126.754321,160.520286 C128.478765,161.257107 129.669929,162.876536 129.866131,164.750393 C130.0893,166.647928 129.245443,168.5125 127.676287,169.589178 L92.3816703,194.072821 C91.5359534,194.666179 90.5316937,194.989321 89.5004676,195 C88.4701715,194.984214 87.4677715,194.661536 86.619265,194.072821 L51.3534743,169.589178 C49.7787392,168.515286 48.9246534,166.652571 49.135269,164.750393 C49.3705262,162.857036 50.6044639,161.239464 52.3619185,160.520286 L87.6277091,146.264857 C88.867691,145.770857 90.2485482,145.770857 91.48853,146.264857 Z" id="Shape"></path>
            </g>
            <g id="type" transform="translate(221.000000, 0.000000)" fill="#000000" fill-rule="nonzero">
                <path d="M30.2833,72.89 L40.0521,72.89 C49.6255,72.89 56.6916,71.2876 61.2504,68.083 C65.8091,64.8783 68.0885,59.8424 68.0885,52.9752 C68.0885,46.1735 65.744,41.3337 61.055,38.4561 C56.4311,35.5784 49.2347,34.1396 39.4659,34.1396 L30.2833,34.1396 L30.2833,72.89 Z M30.2833,97.6117 L30.2833,152.647 L0,152.647 L0,9.22161 L41.6151,9.22161 C61.0224,9.22161 75.3826,12.786 84.6955,19.9148 C94.0084,26.9781 98.6649,37.7367 98.6649,52.1904 C98.6649,60.6272 96.3529,68.1484 91.729,74.7539 C87.1051,81.2941 80.56,86.4281 72.0937,90.156 C93.5851,122.399 107.587,143.229 114.1,152.647 L80.4949,152.647 L46.4018,97.6117 L30.2833,97.6117 Z" id="Shape"></path>
                <path d="M157.875,62.1968 C151.558,62.1968 146.608,64.2243 143.026,68.2792 C139.444,72.2686 137.393,77.9586 136.872,85.3489 L178.682,85.3489 C178.552,77.9586 176.631,72.2686 172.919,68.2792 C169.207,64.2243 164.192,62.1968 157.875,62.1968 Z M162.075,154.609 C144.492,154.609 130.75,149.737 120.851,139.992 C110.952,130.247 106.003,116.447 106.003,98.5927 C106.003,80.2149 110.561,66.0228 119.679,56.0164 C128.862,45.9445 141.528,40.9086 157.679,40.9086 C173.114,40.9086 185.13,45.3232 193.726,54.1524 C202.323,62.9816 206.621,75.179 206.621,90.7446 L206.621,105.264 L136.188,105.264 C136.514,113.766 139.021,120.404 143.71,125.178 C148.399,129.953 154.977,132.34 163.443,132.34 C170.021,132.34 176.24,131.653 182.101,130.28 C187.963,128.906 194.085,126.715 200.467,123.707 L200.467,146.859 C195.257,149.475 189.689,151.404 183.762,152.647 C177.836,153.955 170.607,154.609 162.075,154.609 Z" id="Shape"></path>
                <path d="M257.427,154.609 C244.597,154.609 234.503,149.606 227.143,139.599 C219.849,129.593 216.202,115.728 216.202,98.0041 C216.202,80.0187 219.915,66.0228 227.339,56.0164 C234.828,45.9445 245.118,40.9086 258.208,40.9086 C271.95,40.9086 282.435,46.2716 289.664,56.9974 L290.641,56.9974 C289.143,48.8222 288.394,41.5299 288.394,35.1206 L288.394,0 L318.286,0 L318.286,152.647 L295.427,152.647 L289.664,138.422 L288.394,138.422 C281.621,149.214 271.298,154.609 257.427,154.609 Z M267.879,130.77 C275.499,130.77 281.067,128.547 284.584,124.099 C288.166,119.652 290.12,112.098 290.445,101.438 L290.445,98.2003 C290.445,86.4281 288.622,77.9913 284.975,72.89 C281.393,67.7886 275.532,65.238 267.391,65.238 C260.748,65.238 255.571,68.083 251.859,73.7729 C248.212,79.3974 246.388,87.6053 246.388,98.3965 C246.388,109.188 248.244,117.298 251.956,122.726 C255.668,128.089 260.976,130.77 267.879,130.77 Z" id="Shape"></path>
                <path d="M431.221,152.647 L422.82,114.289 L411.488,65.8266 L410.805,65.8266 L390.876,152.647 L358.835,152.647 L327.77,42.9688 L357.467,42.9688 L370.069,91.5294 C372.088,100.228 374.139,112.229 376.223,127.533 L376.809,127.533 C377.07,122.562 378.209,114.682 380.228,103.89 L381.791,95.5516 L395.272,42.9688 L428.095,42.9688 L440.893,95.5516 C441.153,96.9904 441.544,99.116 442.065,101.928 C442.651,104.74 443.205,107.749 443.726,110.954 C444.247,114.093 444.702,117.199 445.093,120.273 C445.549,123.282 445.81,125.702 445.875,127.533 L446.461,127.533 C447.047,122.824 448.089,116.382 449.587,108.207 C451.085,99.9662 452.159,94.4071 452.811,91.5294 L465.901,42.9688 L495.109,42.9688 L463.654,152.647 L431.221,152.647 Z" id="Path"></path>
                <path d="M528.527,97.6117 C528.527,108.468 530.285,116.676 533.802,122.235 C537.384,127.795 543.18,130.574 551.19,130.574 C559.135,130.574 564.834,127.827 568.286,122.333 C571.802,116.774 573.561,108.534 573.561,97.6117 C573.561,86.7551 571.802,78.6126 568.286,73.1843 C564.769,67.7559 559.005,65.0418 550.995,65.0418 C543.049,65.0418 537.318,67.7559 533.802,73.1843 C530.285,78.5472 528.527,86.6897 528.527,97.6117 Z M604.039,97.6117 C604.039,115.466 599.35,129.43 589.972,139.501 C580.594,149.573 567.537,154.609 550.799,154.609 C540.314,154.609 531.066,152.32 523.056,147.742 C515.046,143.098 508.891,136.46 504.593,127.827 C500.295,119.194 498.146,109.122 498.146,97.6117 C498.146,79.6917 502.802,65.7612 512.115,55.8202 C521.428,45.8791 534.518,40.9086 551.385,40.9086 C561.871,40.9086 571.118,43.1977 579.129,47.7758 C587.139,52.3539 593.294,58.9267 597.592,67.4943 C601.89,76.0619 604.039,86.1011 604.039,97.6117 Z" id="Shape"></path>
                <path d="M644.392,97.6117 C644.392,108.468 646.151,116.676 649.667,122.235 C653.249,127.795 659.046,130.574 667.056,130.574 C675.001,130.574 680.7,127.827 684.151,122.333 C687.668,116.774 689.426,108.534 689.426,97.6117 C689.426,86.7551 687.668,78.6126 684.151,73.1843 C680.635,67.7559 674.871,65.0418 666.86,65.0418 C658.915,65.0418 653.184,67.7559 649.667,73.1843 C646.151,78.5472 644.392,86.6897 644.392,97.6117 Z M719.905,97.6117 C719.905,115.466 715.216,129.43 705.838,139.501 C696.46,149.573 683.402,154.609 666.665,154.609 C656.18,154.609 646.932,152.32 638.922,147.742 C630.911,143.098 624.757,136.46 620.459,127.827 C616.16,119.194 614.011,109.122 614.011,97.6117 C614.011,79.6917 618.668,65.7612 627.981,55.8202 C637.294,45.8791 650.384,40.9086 667.251,40.9086 C677.736,40.9086 686.984,43.1977 694.995,47.7758 C703.005,52.3539 709.159,58.9267 713.458,67.4943 C717.756,76.0619 719.905,86.1011 719.905,97.6117 Z" id="Shape"></path>
                <path d="M771.101,154.609 C758.272,154.609 748.177,149.606 740.818,139.599 C733.524,129.593 729.877,115.728 729.877,98.0041 C729.877,80.0187 733.589,66.0228 741.014,56.0164 C748.503,45.9445 758.793,40.9086 771.883,40.9086 C785.624,40.9086 796.11,46.2716 803.338,56.9974 L804.315,56.9974 C802.817,48.8222 802.069,41.5299 802.069,35.1206 L802.069,0 L831.961,0 L831.961,152.647 L809.102,152.647 L803.338,138.422 L802.069,138.422 C795.295,149.214 784.973,154.609 771.101,154.609 Z M781.554,130.77 C789.174,130.77 794.742,128.547 798.259,124.099 C801.841,119.652 803.794,112.098 804.12,101.438 L804.12,98.2003 C804.12,86.4281 802.296,77.9913 798.649,72.89 C795.068,67.7886 789.206,65.238 781.066,65.238 C774.423,65.238 769.245,68.083 765.533,73.7729 C761.886,79.3974 760.063,87.6053 760.063,98.3965 C760.063,109.188 761.919,117.298 765.631,122.726 C769.343,128.089 774.651,130.77 781.554,130.77 Z" id="Shape"></path>
                <path d="M842.519,194.831 C835.681,194.831 829.722,194.112 824.642,192.673 L824.642,167.362 C829.852,168.67 834.606,169.324 838.905,169.324 C845.547,169.324 850.302,167.232 853.167,163.046 C856.033,158.926 857.465,152.451 857.465,143.622 L857.465,9.22161 L887.749,9.22161 L887.749,143.425 C887.749,160.168 883.939,172.922 876.319,181.685 C868.7,190.449 857.433,194.831 842.519,194.831 Z" id="Path"></path>
                <path d="M1000,112.818 C1000,125.767 995.344,135.97 986.031,143.425 C976.783,150.881 963.888,154.609 947.346,154.609 C932.107,154.609 918.626,151.731 906.903,145.976 L906.903,117.723 C916.542,122.039 924.683,125.08 931.325,126.846 C938.033,128.612 944.155,129.495 949.691,129.495 C956.333,129.495 961.413,128.22 964.93,125.669 C968.512,123.118 970.303,119.325 970.303,114.289 C970.303,111.477 969.521,108.992 967.958,106.833 C966.395,104.61 964.083,102.484 961.022,100.457 C958.027,98.4292 951.872,95.1919 942.559,90.7446 C933.833,86.6243 927.288,82.6675 922.924,78.8742 C918.561,75.0809 915.077,70.6663 912.472,65.6304 C909.867,60.5945 908.564,54.7083 908.564,47.972 C908.564,35.2841 912.83,25.3104 921.361,18.0508 C929.958,10.7912 941.81,7.16146 956.92,7.16146 C964.344,7.16146 971.41,8.04438 978.118,9.81022 C984.891,11.5761 991.957,14.0613 999.316,17.266 L989.547,40.9086 C981.928,37.7694 975.611,35.5784 970.596,34.3358 C965.646,33.0932 960.762,32.4718 955.943,32.4718 C950.212,32.4718 945.816,33.8126 942.755,36.494 C939.694,39.1755 938.163,42.6745 938.163,46.991 C938.163,49.6724 938.782,52.0269 940.02,54.0543 C941.257,56.0164 943.211,57.9457 945.881,59.8424 C948.616,61.6736 955.031,65.0091 965.125,69.8488 C978.476,76.2581 987.626,82.7002 992.576,89.1749 C997.525,95.5843 1000,103.465 1000,112.818 Z" id="Path"></path>
            </g>
        </g>
    </g>
</svg>

<?xml version="1.0" encoding="utf-8"?>
<!-- Generator: Adobe Illustrator 25.4.1, SVG Export Plug-In . SVG Version: 6.00 Build 0)  -->
<svg version="1.1" id="Layer_1" xmlns="http://www.w3.org/2000/svg" xmlns:xlink="http://www.w3.org/1999/xlink" x="0px" y="0px"
	 viewBox="0 0 1221 195" style="enable-background:new 0 0 1221 195;" xml:space="preserve">
<style type="text/css">
	.st0{fill-rule:evenodd;clip-rule:evenodd;fill:#BF4722;}
	.st1{font-family:'ProximaNova-Black';}
	.st2{font-size:196px;}
	.st3{font-size:144px;}
</style>
<g id="Page-1">
	<g id="Redwood-Logotype">
		<g id="logo">
			<path id="Shape" class="st0" d="M48.7,28.2L86.6,54c0.9,0.6,1.9,0.9,2.9,0.9c1,0,2-0.3,2.9-0.9l37.9-25.9
				c1.5-1.1,2.3-2.8,2.1-4.6c-0.1-1.8-1.2-3.4-2.9-4.2L91.7,0.5c-1.4-0.7-3.1-0.7-4.6,0L49.4,19.3c-1.7,0.8-2.8,2.4-2.9,4.3
				C46.3,25.4,47.2,27.2,48.7,28.2z M102.4,62.2c0,1.7,0.8,3.3,2.2,4.3l30.4,20.7c1.9,1.3,4.5,1.2,6.3-0.4L166.9,64
				c1.1-1,1.8-2.5,1.7-4c0-1.5-0.8-3-2-3.9l-24.3-19.4c-1.8-1.4-4.2-1.5-6.1-0.2L104.7,58C103.3,58.9,102.4,60.5,102.4,62.2z
				 M26.8,90.4c1.2,1.1,1.9,2.7,1.7,4.4c-0.2,1.7-1.1,3.1-2.6,3.9L7.8,109.6c-1.8,1.1-4.2,0.9-5.8-0.4c-1.7-1.3-2.4-3.6-1.7-5.6
				L7,82.4c0.5-1.7,1.9-3,3.5-3.4c1.7-0.5,3.5-0.1,4.8,1.1L26.8,90.4z M125.3,92.6L92.4,70.1c-1.7-1.2-4-1.2-5.8,0L53.9,92.6
				c-1.3,0.9-2.1,2.4-2.2,3.9c-0.1,1.6,0.5,3.2,1.7,4.2L86.1,130c0.9,0.8,2.2,1.3,3.4,1.3c1.3,0,2.5-0.5,3.4-1.3l32.8-29.3
				c1.2-1.1,1.8-2.6,1.7-4.2C127.4,94.9,126.6,93.5,125.3,92.6z M37.7,86.8L12.3,64c-1.1-1-1.8-2.5-1.7-4.1c0-1.5,0.7-3,1.9-3.9
				l24.3-19.6c1.8-1.4,4.3-1.5,6.1-0.2l31.5,21.5c1.5,1,2.3,2.6,2.3,4.3s-0.9,3.4-2.3,4.3L44.1,87.2C42.1,88.5,39.5,88.4,37.7,86.8z
				 M168.5,119.5L142.6,104c-1.9-1.2-4.4-0.9-6.1,0.6l-31.7,28.2c-1.3,1.2-2,3-1.7,4.8c0.3,1.8,1.5,3.3,3.2,3.9l44,17.8
				c0.6,0.3,1.2,0.4,1.9,0.4c2,0,3.9-1.2,4.7-3.1l13.6-30.5C171.7,123.7,170.8,120.9,168.5,119.5z M172.1,82.4l6.7,21.1h-0.1
				c0.5,1.6,0.2,3.3-0.8,4.6c-1,1.3-2.5,2.1-4.2,2.1c-0.9,0-1.8-0.2-2.6-0.7L153,98.7c-1.4-0.8-2.3-2.3-2.5-3.9
				c-0.2-1.6,0.5-3.3,1.7-4.4l11.5-10.3c1.3-1.2,3.1-1.6,4.8-1.1C170.2,79.5,171.6,80.8,172.1,82.4z M75.9,137.6
				c0.3-1.8-0.3-3.6-1.6-4.8l-31.7-28.2c-1.7-1.5-4.1-1.7-6.1-0.6l-25.9,15.5c-2.2,1.4-3.1,4.2-2.1,6.6l13.7,30.5
				c1.1,2.5,4.1,3.7,6.6,2.7l43.9-17.8C74.4,140.8,75.6,139.3,75.9,137.6z M91.5,146.3l35.3,14.3c1.7,0.7,2.9,2.4,3.1,4.2
				c0.2,1.9-0.6,3.8-2.2,4.8l-35.3,24.5c-0.8,0.6-1.8,0.9-2.9,0.9c-1,0-2-0.3-2.9-0.9l-35.3-24.5c-1.6-1.1-2.4-2.9-2.2-4.8
				c0.2-1.9,1.5-3.5,3.2-4.2l35.3-14.3C88.9,145.8,90.2,145.8,91.5,146.3z"/>
		</g>
		<g id="type" transform="translate(221.000000, 0.000000)">
			<path id="Shape_00000006702318398138714620000006196974744439634070_" d="M30.3,72.9h9.8c9.6,0,16.6-1.6,21.2-4.8
				c4.6-3.2,6.8-8.2,6.8-15.1c0-6.8-2.3-11.6-7-14.5c-4.6-2.9-11.8-4.3-21.6-4.3h-9.2V72.9z M30.3,97.6v55H0V9.2h41.6
				c19.4,0,33.8,3.6,43.1,10.7c9.3,7.1,14,17.8,14,32.3c0,8.4-2.3,16-6.9,22.6c-4.6,6.5-11.2,11.7-19.6,15.4
				c21.5,32.2,35.5,53.1,42,62.5H80.5l-34.1-55H30.3z"/>
			<path id="Shape_00000007415594006535617340000001567745178383229576_" d="M106,98.6"/>
			<path id="Path_00000085969547656256843860000009337871635056796351_" d="M842.5,194.8"/>
		</g>
	</g>
</g>
<text transform="matrix(1 0 0 1 335.1002 152.6465)" class="st1 st2">BAC</text>
<text transform="matrix(1 0 0 1 770.6262 147.6208)" class="st1 st3">Demo</text>
</svg>
